X: 1847
T: Sûzinâk Seyir
C: Şefik Gürmeriç
O: Turkey
F: http://compmusic.upf.edu/node/140
N: suzinak--seyir--sofyan--1--sefik_gurmeric
N: makam= suzinak
N: form= seyir
N: usul= sofyan = 4/4
M: 4/4
L: 1/16
K: C _1/4B _7/8e ^f 
Q: 1/4=60
%%MIDI tuningsystem comma53
c4 d4 d6e2  | f2g2 f2e2 dedc B4  | z2g4gf f3e feed  | 
w:   |   |   | 
d6c2 B2c2 d4  | z2d4e2 f2g2 a2_b2  | \
w:   |   | 
a2g2 g2f2 g8  | z4 a2_b2 a2g2 g2f2  | 
w:   |   | 
f2e2 e2d2 gfed cBc2  | z2d4a2 g2=f2 f2=e2  | \
w:   |   | 
=e2d2 d2c2 dcB^A B4  | 
w:   | 
z2A4B2 c2=e2 d2c2  | B3A ABAG G8  | |


